docs/assets/images/calc-svg/chamfer-07.svg

<svg width="76" height="44" viewBox="0 0 76 44" fill="none" xmlns="http://www.w3.org/2000/svg">
<path d="M74.8889 25.2083L33.7639 43L1.68056 35.125L1 12.9583L45.5278 1L59.625 3.0539L59.9412 5.92775C60.3393 9.54466 62.8333 12.375 66.3333 13.6389C71.2389 15.5213 74.7636 19.8207 74.8889 25.2083Z" fill="#D2D2D2"/>
<path d="M33.7639 43L74.8889 25.2083C74.7636 19.8207 71.2389 15.5213 66.3333 13.6389C62.8333 12.375 60.3393 9.54466 59.9412 5.92775L59.625 3.0539M33.7639 43L1.68056 35.125L1 12.9583M33.7639 43C33.5206 36.858 29.6348 31.5832 24.0417 29.1944C19.7639 27.25 17.2714 24.0522 16.7007 19.8323L16.1667 15.8837M1 12.9583L45.5278 1L59.625 3.0539M1 12.9583L16.1667 15.8837M16.1667 15.8837L59.625 3.0539" stroke="#838383"/>
</svg>

<svg width="76" height="44" fill="none" xmlns="http://www.w3.org/2000/svg"><path d="M74.889 25.208L33.764 43 1.68 35.125 1 12.958 45.528 1l14.097 2.054.316 2.874c.398 3.617 2.892 6.447 6.392 7.71 4.906 1.883 8.43 6.183 8.556 11.57z" fill="#D2D2D2"/><path d="M33.764 43l41.125-17.792c-.125-5.387-3.65-9.687-8.556-11.57-3.5-1.263-5.994-4.093-6.392-7.71l-.316-2.874M33.764 43L1.68 35.125 1 12.958M33.764 43c-.243-6.142-4.13-11.417-9.722-13.806-4.278-1.944-6.77-5.142-7.341-9.362l-.534-3.948M1 12.958L45.528 1l14.097 2.054M1 12.958l15.167 2.926m0 0l43.458-12.83" stroke="#838383"/></svg>
